X: 2
T: Gordon Cot\'e (\251Jerry Holland; R-121)
I: Gordon Cote	R-121	A	reel
M: C|
R: reel
K: A
E| "A"A2cA    EACE| A,CEA caga| "D"fdBd "A"ecAc| "Bm"BFBA "E"GBEG|
   "A"A/A/AcA EACE| A,CEA caga| "D"fdBd "A"ecAc| "E"BEFG "A"A3 :|
|:g| "A"abag aece| "D"fefg "A"aece| "D"fdBd "A"ecAc| "Bm"BFBA "E"GBEg|
   "A"abag aece| "D"fefg "A"aecA| "D"FAdf "A"ecae| "E"dEFG "A"A3 :|

%%topspace -.5cm
